Sources/FrostedUI/Resources/Icons.xcassets/notificationBellCrossed24.imageset/notification-bell-crossed-24.svg

<svg width="24" height="24" viewBox="0 0 24 24" fill="none" xmlns="http://www.w3.org/2000/svg" data-fui-icon="true">
  <path
    d="M20.3389 6.95703C20.745 6.87609 21.1396 7.13983 21.2207 7.5459C21.336 8.12426 21.3965 8.72204 21.3965 9.33301V15.5273C21.3966 15.956 21.5408 16.3718 21.8047 16.709L22.459 17.5459C23.158 18.4393 22.524 19.7496 21.3867 19.75H16.0703V20C16.0703 22.0702 14.3932 23.75 12.3232 23.75C10.2534 23.7499 8.57715 22.0702 8.57715 20V19C8.57715 18.5858 8.91293 18.25 9.32715 18.25H21.1055L20.623 17.6338C20.1526 17.0325 19.8966 16.2909 19.8965 15.5273V9.33301C19.8965 8.82122 19.8461 8.322 19.75 7.83984C19.669 7.43363 19.9327 7.03804 20.3389 6.95703ZM10.0771 20C10.0771 21.2434 11.0835 22.2499 12.3232 22.25C13.563 22.25 14.5703 21.2435 14.5703 20V19.75H10.0771V20ZM21.4697 0.469727C21.7626 0.176862 22.2374 0.176843 22.5303 0.469727C22.8231 0.762612 22.8231 1.23739 22.5303 1.53027L3.53027 20.5303C3.23739 20.8232 2.76262 20.8231 2.46973 20.5303C2.17683 20.2374 2.17683 19.7626 2.46973 19.4697L21.4697 0.469727ZM12.3232 0.25C13.7409 0.250009 15.0851 0.576286 16.2822 1.1582C16.6544 1.33934 16.8097 1.78779 16.6289 2.16016C16.4478 2.53267 15.9985 2.68789 15.626 2.50684C14.6288 2.02214 13.5087 1.75001 12.3232 1.75C8.14159 1.75009 4.75018 5.14421 4.75 9.33301V13.835C4.74982 14.249 4.41408 14.5849 4 14.585C3.58589 14.585 3.25018 14.249 3.25 13.835V9.33301C3.25018 4.31747 7.31148 0.250087 12.3232 0.25Z"
    fill="currentColor"
  />
</svg>

<svg xmlns="http://www.w3.org/2000/svg" width="24" height="24" fill="none" data-fui-icon="true" viewBox="0 0 24 24"><path fill="currentColor" d="M20.339 6.957a.75.75 0 0 1 .882.589q.174.869.175 1.787v6.194c0 .429.145.845.409 1.182l.654.837c.699.893.065 2.204-1.072 2.204H16.07V20c0 2.07-1.677 3.75-3.747 3.75A3.75 3.75 0 0 1 8.577 20v-1a.75.75 0 0 1 .75-.75h11.779l-.483-.616a3.42 3.42 0 0 1-.727-2.107V9.333q-.001-.769-.146-1.493a.75.75 0 0 1 .589-.883M10.077 20a2.25 2.25 0 0 0 2.246 2.25A2.25 2.25 0 0 0 14.57 20v-.25h-4.493zM21.47.47a.75.75 0 0 1 1.06 1.06l-19 19a.75.75 0 1 1-1.06-1.06zM12.323.25c1.418 0 2.762.326 3.96.908a.75.75 0 1 1-.657 1.349 7.5 7.5 0 0 0-3.303-.757c-4.181 0-7.573 3.394-7.573 7.583v4.502a.75.75 0 0 1-1.5 0V9.333C3.25 4.317 7.311.25 12.323.25"/></svg>
